public/logos/pimlicolabs.svg

<svg width="170" height="26" viewBox="0 0 170 26" fill="none" xmlns="http://www.w3.org/2000/svg">
<path d="M22.7401 0.00144193H0V3.33049H21.0748V11.9319H7.63041C6.71137 11.9319 5.96523 12.6766 5.96523 13.5971V20.1774H9.29573V15.2623H22.7401C23.6592 15.2623 24.4053 14.5176 24.4053 13.5971V1.66524C24.4053 0.74619 23.6606 0 22.7401 0V0.00144193Z" fill="white"/>
<path d="M3.33051 22.6681H11.9305V17.8985H15.261V24.3348C15.261 25.2552 14.5147 26 13.5956 26H1.66518C0.744739 26 0 25.2538 0 24.3348V7.63189C0 6.7114 0.746146 5.96664 1.66518 5.96664H18.4401V9.2957H3.33051V22.6681Z" fill="white"/>
<path d="M22.7401 0.00144193H0V3.33049H21.0748V11.9319H7.63041C6.71137 11.9319 5.96523 12.6766 5.96523 13.5971V20.1774H9.29573V15.2623H22.7401C23.6592 15.2623 24.4053 14.5176 24.4053 13.5971V1.66524C24.4053 0.74619 23.6606 0 22.7401 0V0.00144193Z" fill="white"/>
<path d="M140.535 0.00288386H121.711C120.798 0.00288386 120.057 0.743315 120.057 1.6566V24.3247C120.057 25.238 120.798 25.9784 121.711 25.9784H140.49C140.928 25.9784 141.35 25.8041 141.66 25.4944C141.969 25.1847 142.144 24.764 142.144 24.3247V16.8901H138.836V22.6709H123.366V3.31176H138.881V5.94792H127.658C126.744 5.94792 126.004 6.68835 126.004 7.60164V18.3739C126.004 19.2872 126.744 20.0276 127.658 20.0276H136.2V16.7187H129.311V9.25392H140.535C141.448 9.25392 142.188 8.51349 142.188 7.6002V1.6566C142.188 0.743315 141.448 0.00288386 140.535 0.00288386Z" fill="white"/>
<path d="M3.33051 22.6681H11.9305V17.8985H15.261V24.3348C15.261 25.2552 14.5147 26 13.5956 26H1.66518C0.744739 26 0 25.2538 0 24.3348V7.63189C0 6.7114 0.746146 5.96664 1.66518 5.96664H18.4401V9.2957H3.33051V22.6681Z" fill="white"/>
<path d="M114.324 25.9986H108.359C107.44 25.9986 106.694 25.2538 106.694 24.3333V1.66524C106.694 0.74619 107.439 0 108.359 0H115.998V3.33049H110.024V22.6681H112.66V5.96664H115.99V24.3333C115.99 25.2524 115.245 25.9986 114.324 25.9986Z" fill="white"/>
<path d="M29.9902 25.9986H35.9554C36.876 25.9986 37.6207 25.2524 37.6207 24.3333V5.96664H34.2916V22.6681H31.6555V3.33049H37.6293V0H29.9902C29.0697 0 28.325 0.74619 28.325 1.66524V24.3333C28.325 25.2538 29.0711 25.9986 29.9902 25.9986Z" fill="white"/>
<path d="M78.2464 1.66524V24.3333C78.2464 25.2524 77.5017 25.9986 76.5826 25.9986H69.1753V22.6681H74.9173V3.33049H66.1892L61.4297 14.4974C61.1675 15.1111 60.5654 15.5087 59.8985 15.5087C59.2315 15.5087 58.6293 15.1111 58.3672 14.4974L53.6077 3.33049H44.8796V22.6681H50.6214V25.9986H43.2143C42.2952 25.9986 41.5505 25.2524 41.5505 24.3333V1.66524C41.5505 0.74619 42.2952 0.00144193 43.2143 0.00144193H54.7068C55.3752 0.00144193 55.9774 0.399028 56.2395 1.01269L59.8985 9.5982L63.5573 1.01269C63.8195 0.399028 64.4216 0.00144193 65.0901 0.00144193H76.5826C77.5017 0.00144193 78.2464 0.74619 78.2464 1.66524Z" fill="white"/>
<path d="M72.2812 20.0319V7.63189C72.2812 6.7114 71.535 5.96664 70.6159 5.96664H69.0689C68.4019 5.96664 67.7983 6.36423 67.5376 6.97789L62.4237 18.8175H57.3732L52.2593 6.97789C51.9987 6.36423 51.395 5.96664 50.7281 5.96664H49.1809C48.2619 5.96664 47.5157 6.7114 47.5157 7.63189V20.0319H50.6214V10.5619L55.1951 21.1354C55.4559 21.749 56.0594 22.1466 56.7264 22.1466H63.0704C63.7374 22.1466 64.341 21.749 64.6017 21.1354L69.1753 10.5619V20.0319H72.2812Z" fill="white"/>
<path d="M99.5804 22.6681H85.6347V5.96664H82.3042V24.3333C82.3042 25.2524 83.049 25.9986 83.9694 25.9986H101.246C102.165 25.9986 102.911 25.2538 102.911 24.3333V16.7792H99.5804V22.6681Z" fill="white"/>
<path d="M89.9346 20.0334C89.0142 20.0334 88.2694 19.2872 88.2694 18.3681H88.268V3.33049H82.3776V0H89.9332C90.8537 0 91.5984 0.74619 91.5984 1.66524V16.7043H96.9442V20.0334H89.9346Z" fill="white"/>
<path fill-rule="evenodd" clip-rule="evenodd" d="M153.789 5.94792H162.383C163.279 5.94792 164.005 6.67394 164.005 7.56851V18.4142C164.005 19.3088 163.279 20.0348 162.383 20.0348H153.789C152.894 20.0348 152.168 19.3088 152.168 18.4142V7.56851C152.168 6.67394 152.894 5.94792 153.789 5.94792ZM155.411 9.1891H160.762V16.7936H155.411V9.1891Z" fill="white"/>
<path fill-rule="evenodd" clip-rule="evenodd" d="M168.27 0.00288386H147.901C146.988 0.00288386 146.246 0.743315 146.246 1.6566V24.3247C146.246 25.238 146.988 25.9784 147.901 25.9784H168.27C169.184 25.9784 169.924 25.238 169.924 24.3247V1.6566C169.924 0.743315 169.184 0.00288386 168.27 0.00288386ZM166.617 22.6709H149.555V3.31176H166.617V22.6709Z" fill="white"/>
</svg>

<svg xmlns="http://www.w3.org/2000/svg" xmlns:xlink="http://www.w3.org/1999/xlink" viewBox="0 0 170.015625 26" width="143.859375" height="22"><path fill="#fff" d="M22.74.001H0v3.33h21.075v8.6H7.63c-.919 0-1.665.746-1.665 1.666v6.58h3.33v-4.915H22.74c.92 0 1.665-.744 1.665-1.665V1.665C24.405.746 23.661 0 22.74 0z"/><path fill="#fff" d="M3.33 22.668h8.6v-4.77h3.331v6.437c0 .92-.746 1.665-1.665 1.665H1.666A1.665 1.665 0 0 1 0 24.335V7.632c0-.92.746-1.665 1.665-1.665H18.44v3.329H3.33z"/><path fill="#fff" d="M22.74.001H0v3.33h21.075v8.6H7.63c-.919 0-1.665.746-1.665 1.666v6.58h3.33v-4.915H22.74c.92 0 1.665-.744 1.665-1.665V1.665C24.405.746 23.661 0 22.74 0zm117.795.002h-18.824c-.913 0-1.654.74-1.654 1.654v22.668c0 .913.741 1.653 1.654 1.653h18.779a1.656 1.656 0 0 0 1.654-1.654V16.89h-3.308v5.78h-15.47V3.313h15.515v2.636h-11.223c-.914 0-1.654.74-1.654 1.654v10.772c0 .913.74 1.654 1.654 1.654h8.542v-3.31h-6.889V9.255h11.224c.913 0 1.653-.74 1.653-1.654V1.657c0-.914-.74-1.654-1.653-1.654"/><path fill="#fff" d="M3.33 22.668h8.6v-4.77h3.331v6.437c0 .92-.746 1.665-1.665 1.665H1.666A1.665 1.665 0 0 1 0 24.335V7.632c0-.92.746-1.665 1.665-1.665H18.44v3.329H3.33zm110.994 3.331h-5.965a1.665 1.665 0 0 1-1.665-1.666V1.665c0-.919.745-1.665 1.665-1.665h7.639v3.33h-5.974v19.338h2.636V5.967h3.33v18.366c0 .92-.745 1.666-1.666 1.666m-84.334 0h5.965c.921 0 1.666-.747 1.666-1.666V5.967h-3.33v16.701h-2.635V3.33h5.973V0H29.99c-.92 0-1.665.746-1.665 1.665v22.668c0 .92.746 1.666 1.665 1.666M78.246 1.665v22.668c0 .92-.744 1.666-1.663 1.666h-7.408v-3.33h5.742V3.33H66.19l-4.76 11.167a1.665 1.665 0 0 1-3.062 0L53.607 3.33H44.88v19.338h5.741v3.33h-7.407a1.664 1.664 0 0 1-1.663-1.665V1.665c0-.919.744-1.664 1.663-1.664h11.493c.668 0 1.27.398 1.532 1.012l3.66 8.585 3.658-8.585A1.67 1.67 0 0 1 65.09 0h11.493c.919 0 1.663.745 1.663 1.664"/><path fill="#fff" d="M72.281 20.032v-12.4c0-.92-.746-1.665-1.665-1.665h-1.547c-.667 0-1.27.397-1.531 1.01l-5.114 11.84h-5.05l-5.115-11.84a1.66 1.66 0 0 0-1.53-1.01H49.18c-.92 0-1.665.744-1.665 1.665v12.4h3.105v-9.47l4.574 10.573c.26.614.864 1.012 1.531 1.012h6.344c.667 0 1.271-.398 1.532-1.012l4.573-10.573v9.47zm27.299 2.636H85.635V5.967h-3.33v18.366c0 .92.744 1.666 1.664 1.666h17.277c.919 0 1.665-.745 1.665-1.666V16.78h-3.33z"/><path fill="#fff" d="M89.935 20.033c-.92 0-1.666-.746-1.666-1.665h-.001V3.33h-5.89V0h7.555c.92 0 1.665.746 1.665 1.665v15.04h5.346v3.328z"/><path fill="#fff" fill-rule="evenodd" d="M153.789 5.948h8.594c.896 0 1.622.726 1.622 1.62v10.846a1.62 1.62 0 0 1-1.622 1.62h-8.594a1.62 1.62 0 0 1-1.621-1.62V7.57c0-.895.726-1.621 1.621-1.621m1.622 3.241h5.351v7.605h-5.351z" clip-rule="evenodd"/><path fill="#fff" fill-rule="evenodd" d="M168.27.003h-20.369c-.913 0-1.655.74-1.655 1.654v22.668c0 .913.742 1.653 1.655 1.653h20.369c.914 0 1.654-.74 1.654-1.653V1.657c0-.914-.74-1.654-1.654-1.654m-1.653 22.668h-17.062V3.31h17.062z" clip-rule="evenodd"/></svg>
